Sources/FrostedUI/Resources/Icons.xcassets/arrowUpFromBracket32.imageset/arrow-up-from-bracket-32.svg

<svg width="32" height="32" viewBox="0 0 32 32" fill="none" xmlns="http://www.w3.org/2000/svg" data-fui-icon="true">
  <path
    fill-rule="evenodd"
    clip-rule="evenodd"
    d="M28.25 16.0006C28.6642 16.0006 29 16.3364 29 16.7506V23.2506C28.9998 26.9783 25.9778 30.0006 22.25 30.0006H9.75C6.02223 30.0006 3.00024 26.9783 3 23.2506V16.7506C3 16.3364 3.33579 16.0006 3.75 16.0006C4.16421 16.0006 4.5 16.3364 4.5 16.7506V23.2506C4.50024 26.1499 6.85066 28.5006 9.75 28.5006H22.25C25.1493 28.5006 27.4998 26.1499 27.5 23.2506V16.7506C27.5 16.3364 27.8358 16.0006 28.25 16.0006ZM14.998 3.44101C15.5167 2.92241 16.3381 2.88953 16.8945 3.34335L17.002 3.44101L23.5303 9.96933C23.8231 10.2622 23.823 10.737 23.5303 11.0299C23.2374 11.3228 22.7626 11.3228 22.4697 11.0299L16.75 5.31015V19.3336C16.7498 19.7476 16.4141 20.0836 16 20.0836C15.5859 20.0836 15.2502 19.7476 15.25 19.3336V5.31015L9.53027 11.0299C9.23738 11.3228 8.76262 11.3228 8.46973 11.0299C8.17703 10.737 8.1769 10.2622 8.46973 9.96933L14.998 3.44101Z"
    fill="currentColor"
  />
</svg>

<svg xmlns="http://www.w3.org/2000/svg" width="32" height="32" fill="none" data-fui-icon="true" viewBox="0 0 32 32"><path fill="currentColor" fill-rule="evenodd" d="M28.25 16a.75.75 0 0 1 .75.75v6.5A6.75 6.75 0 0 1 22.25 30H9.75A6.75 6.75 0 0 1 3 23.25v-6.5a.75.75 0 0 1 1.5 0v6.5c0 2.9 2.35 5.25 5.25 5.25h12.5c2.9 0 5.25-2.35 5.25-5.25v-6.5a.75.75 0 0 1 .75-.75M14.998 3.442a1.42 1.42 0 0 1 1.897-.098l.107.098 6.528 6.528a.75.75 0 0 1-1.06 1.06L16.75 5.31v14.024a.75.75 0 0 1-1.5 0V5.31l-5.72 5.72a.75.75 0 1 1-1.06-1.06z" clip-rule="evenodd"/></svg>
